X: 38
T:After The Battle of Aughrim
M:2/4
L:1/8
Q:240
R:March
K:G
"Am"EA A/2B/2c/2d/2|ed ^cA|
"G"BG G/2F/2G/2A/2|BA/2G/2 ED|
"Am"EA A/2G/2A/2B/2|ee a>g|
"G"ed "Em"B/2e/2c/2B/2|"Am"A2A2::!
"Am"a>g ef/2g/2|a>g ef/2g/2|
"Am"a>f "G"g>e|"Em"dB G2|
"Am"a>g ef/2g/2|a/2b/2a/2g/2 ed|
"G"Be "Em"dB|"Am"A2A2:|
